X:55
T:Edmund Mackenzie of Plockton
Z:Jack Campin, http://www.campin.me.uk/
F:Jack Campin's Nine-Note Tunebook
% last edit 03-02-2013
N:modified a bit
C:Andrew Rankine
M:6/8
L:1/8
Q:3/8=120
K:F %Transposed from G
CDE FGA|c2c  A3|B2B G3 |c2c A3 |
CDE FGA|c2c  A3|c2A BGE|F3  F3:|
d3  B3 |c=Bc A3|BAB CEG|c2B A3 |
d3  B3 |c=Bc A3|cdc BAG|F3  F3:|

